X:133
T: ES GIENG EIN MATROSE WOHL UEBER DEN RHEIN
N: E0069A
O: Europa, Mitteleuropa, Deutschland, Helgoland
R: erzaehlendes Volks - Lied, Sage, Liebe
M: 6/8
L: 1/8
K: F
C | FFAcAF | E2GBG
E | FAccBA | G3z2
c | cBdfed | cAfc2
f | edcBAG | F3z2

